X:1
T: Lady Ann Hope's Strathspey
C:
R:Strathspey
Q: 128
K:G
M:4/4
L:1/16
|:c2|BcdB GB3 E3G D3G|F3A B2AG F3D D3c|BcdB GB3 E3G D3g|efge fgaf gG3 G2c2|
BcdB GB3 E3G D3G|F3A B2AG F3D D3c|BcdB GB3 E3G D3g|efge fgaf gG3 G2d2|
g3b g3d g3b g3d|g3b a3g fd3 d2ef|g3b d3B c3e d3g|e3g f3a gG3 G3d|
g3b g3d g3b g3d|e3a a3g fd3 d2ga|b3g a3f g3e d3c|B3g A3f gG3 G2:|
